icons/tag-plus.svg

<svg xmlns="http://www.w3.org/2000/svg" width="24" height="24" viewBox="0 0 24 24">
  <path d="M13,2 C13.2652165,2 13.5195704,2.10535684 13.7071068,2.29289322 L13.7071068,2.29289322 L21.2928932,9.87867966 C22.4644661,11.0502525 22.4644661,12.9497475 21.2928932,14.1213203 L21.2928932,14.1213203 L14.1213203,21.2928932 C12.9497475,22.4644661 11.0502525,22.4644661 9.87867966,21.2928932 L9.87867966,21.2928932 L2.29289322,13.7071068 C2.10535684,13.5195704 2,13.2652165 2,13 L2,13 L2,5 C2,3.34314575 3.34314575,2 5,2 L5,2 Z M12,8 C11.4477153,8 11,8.44771525 11,9 L11,9 L10.999,11 L9,11 L8.88337887,11.0067277 C8.38604019,11.0644928 8,11.4871642 8,12 C8,12.5522847 8.44771525,13 9,13 L9,13 L10.999,13 L11,15 L11.0067277,15.1166211 C11.0644928,15.6139598 11.4871642,16 12,16 C12.5522847,16 13,15.5522847 13,15 L13,15 L12.999,13 L15,13 L15.1166211,12.9932723 C15.6139598,12.9355072 16,12.5128358 16,12 C16,11.4477153 15.5522847,11 15,11 L15,11 L12.999,11 L13,9 L12.9932723,8.88337887 C12.9355072,8.38604019 12.5128358,8 12,8 Z"/>
</svg>

<svg xmlns="http://www.w3.org/2000/svg" viewBox="0 0 24 24">
  <path d="M13 2a1 1 0 0 1 .7.3l7.6 7.58a3 3 0 0 1 0 4.24l-7.18 7.17a3 3 0 0 1-4.24 0l-7.59-7.58A1 1 0 0 1 2 13V5a3 3 0 0 1 3-3zm-1 6a1 1 0 0 0-1 1v2H8.88A1 1 0 0 0 9 13h2v2.12a1 1 0 0 0 2-.12v-2h2.12a1 1 0 0 0-.12-2h-2V8.88A1 1 0 0 0 12 8z"/>
</svg>
